ix/arrange-square-2_outline.svg

<svg viewBox="0 0 24 24" fill="none" xmlns="http://www.w3.org/2000/svg" height="1em" width="1em">
  <path d="M15 22.75H9C3.57 22.75 1.25 20.43 1.25 15V9C1.25 3.57 3.57 1.25 9 1.25H15C20.43 1.25 22.75 3.57 22.75 9V15C22.75 20.43 20.43 22.75 15 22.75ZM9 2.75C4.39 2.75 2.75 4.39 2.75 9V15C2.75 19.61 4.39 21.25 9 21.25H15C19.61 21.25 21.25 19.61 21.25 15V9C21.25 4.39 19.61 2.75 15 2.75H9Z" fill="#292D32"/>
  <path d="M10.1801 17.9C9.99008 17.9 9.80008 17.83 9.65008 17.68L6.61008 14.64C6.32008 14.35 6.32008 13.87 6.61008 13.58C6.90008 13.29 7.38008 13.29 7.67008 13.58L10.7101 16.62C11.0001 16.91 11.0001 17.39 10.7101 17.68C10.5701 17.83 10.3801 17.9 10.1801 17.9Z" fill="#292D32"/>
  <path d="M10.1797 17.9001C9.76969 17.9001 9.42969 17.5601 9.42969 17.1501V6.8501C9.42969 6.4401 9.76969 6.1001 10.1797 6.1001C10.5897 6.1001 10.9297 6.4401 10.9297 6.8501V17.1601C10.9297 17.5701 10.5997 17.9001 10.1797 17.9001Z" fill="#292D32"/>
  <path d="M16.8598 10.64C16.6698 10.64 16.4798 10.57 16.3298 10.42L13.2898 7.38004C12.9998 7.09004 12.9998 6.61004 13.2898 6.32004C13.5798 6.03004 14.0598 6.03004 14.3498 6.32004L17.3898 9.36004C17.6798 9.65004 17.6798 10.13 17.3898 10.42C17.2398 10.56 17.0498 10.64 16.8598 10.64Z" fill="#292D32"/>
  <path d="M13.8203 17.9001C13.4103 17.9001 13.0703 17.5601 13.0703 17.1501V6.8501C13.0703 6.4401 13.4103 6.1001 13.8203 6.1001C14.2303 6.1001 14.5703 6.4401 14.5703 6.8501V17.1601C14.5703 17.5701 14.2303 17.9001 13.8203 17.9001Z" fill="#292D32"/>
</svg>

<svg viewBox="0 0 24 24" fill="none" xmlns="http://www.w3.org/2000/svg" height="1em" width="1em">
  <path d="M15 22.75H9c-5.43 0-7.75-2.32-7.75-7.75V9c0-5.43 2.32-7.75 7.75-7.75h6c5.43 0 7.75 2.32 7.75 7.75v6c0 5.43-2.32 7.75-7.75 7.75Zm-6-20C4.39 2.75 2.75 4.39 2.75 9v6c0 4.61 1.64 6.25 6.25 6.25h6c4.61 0 6.25-1.64 6.25-6.25V9c0-4.61-1.64-6.25-6.25-6.25H9Z" fill="#292D32"/>
  <path d="M10.18 17.9c-.19 0-.38-.07-.53-.22l-3.04-3.04a.754.754 0 0 1 0-1.06c.29-.29.77-.29 1.06 0l3.04 3.04c.29.29.29.77 0 1.06a.71.71 0 0 1-.53.22Z" fill="#292D32"/>
  <path d="M10.18 17.9c-.41 0-.75-.34-.75-.75V6.85c0-.41.34-.75.75-.75s.75.34.75.75v10.31c0 .41-.33.74-.75.74Zm6.68-7.26c-.19 0-.38-.07-.53-.22l-3.04-3.04a.754.754 0 0 1 0-1.06c.29-.29.77-.29 1.06 0l3.04 3.04c.29.29.29.77 0 1.06-.15.14-.34.22-.53.22Z" fill="#292D32"/>
  <path d="M13.82 17.9c-.41 0-.75-.34-.75-.75V6.85c0-.41.34-.75.75-.75s.75.34.75.75v10.31c0 .41-.34.74-.75.74Z" fill="#292D32"/>
</svg>
